X:95
T:Gigue du Plateau Mont-Royal
C:Jean-Claude Bélanger
Z:robin.beech@mcgill.ca
R:reel
M:4/4
L:1/8
K:D
|: cFAc fdBF | cFce dFBd | cFAc BFBd | cdcB c3d |
cFAc fdBf | cFce dFBd | cFAc Bdcc | CdcA F3d ::
cFFc dFFd | cFFc BFFB | cFFc dccB | cCCc cCCc |
cFFc dFFd | cFFc BFFB | cFFc dccB | AccA AFF2 ::
cAAc dBBd | ecce fdaf | eaae caac | BeeE Eeed |
cAAc dBBd | ecce fdaf | eaae caac |1 Beec Aeed :|2 Beec A3d :|
